X: 10603
M: 2/4
L: 1/16
K: D
|:\
|: fg |\
adfd ceAc | dcdA BGFG | GBFA EADF | AgBe dcBA |\
adfd ceAc | dfce DFAD | GBEA gfec | d2[f2d2]d2 :|


